src/lib/packages/icons/src/assets/line/folder-settings.svg

<svg width="24" height="24" viewBox="0 0 24 24" fill="none" xmlns="http://www.w3.org/2000/svg">
<path d="M15.343 10.693C15.134 10.344 14.688 10.224 14.332 10.422L14.2161 10.487C14.0701 10.569 13.8911 10.568 13.7451 10.486C13.6101 10.411 13.5271 10.274 13.5271 10.13C13.5271 9.644 13.1311 9.24899 12.6421 9.24899H11.3081C10.8201 9.24899 10.4231 9.644 10.4231 10.13C10.4231 10.274 10.3401 10.411 10.2061 10.486C10.0601 10.569 9.87889 10.567 9.73389 10.487C9.31989 10.254 8.78199 10.396 8.54199 10.804L7.87012 11.931C7.76812 12.105 7.72605 12.409 7.77905 12.604C7.84005 12.831 7.99297 13.027 8.19897 13.142C8.33297 13.218 8.41697 13.355 8.41797 13.499C8.41797 13.645 8.33404 13.782 8.19604 13.86C7.99005 13.976 7.83808 14.174 7.77808 14.402C7.72608 14.596 7.77005 14.9 7.87305 15.073L8.54297 16.198C8.78897 16.608 9.31211 16.747 9.73511 16.513C9.88011 16.432 10.0591 16.431 10.2041 16.513C10.2051 16.513 10.2051 16.513 10.2051 16.513C10.3391 16.588 10.4221 16.724 10.4221 16.869C10.4221 17.355 10.8179 17.75 11.3069 17.75H12.6431C13.1301 17.75 13.5271 17.355 13.5271 16.869C13.5271 16.725 13.6101 16.589 13.7451 16.513C13.8911 16.431 14.0701 16.431 14.2161 16.512C14.6361 16.747 15.1579 16.61 15.4089 16.195L16.075 15.076C16.18 14.902 16.2241 14.597 16.1731 14.4C16.1131 14.171 15.9599 13.974 15.7529 13.858C15.7489 13.856 15.745 13.854 15.741 13.852C15.613 13.775 15.533 13.641 15.533 13.501C15.533 13.355 15.617 13.217 15.751 13.141L15.8669 13.076C16.0429 12.977 16.1721 12.811 16.2241 12.616C16.2761 12.421 16.247 12.212 16.144 12.039L15.343 10.693ZM14.5171 14.762L14.3789 14.992C13.9199 14.898 13.428 14.969 13.009 15.205C12.593 15.44 12.2841 15.815 12.1331 16.249H11.8191C11.6681 15.815 11.3601 15.44 10.9431 15.205C10.5241 14.968 10.032 14.898 9.573 14.991L9.43604 14.762C9.74404 14.416 9.91995 13.966 9.91895 13.493C9.91695 13.026 9.74006 12.581 9.43506 12.237L9.573 12.006C10.036 12.1 10.5251 12.028 10.9441 11.793C11.3601 11.558 11.6681 11.184 11.8191 10.749H12.1331C12.2841 11.183 12.592 11.558 13.009 11.792C13.428 12.029 13.9199 12.099 14.3789 12.006L14.5171 12.236C14.2101 12.582 14.0339 13.03 14.0339 13.502C14.0339 13.972 14.2111 14.418 14.5171 14.762ZM13.02 13.5C13.02 14.052 12.573 14.5 12.02 14.5C11.468 14.5 11.0149 14.052 11.0149 13.5C11.0149 12.948 11.458 12.5 12.01 12.5H12.02C12.572 12.5 13.02 12.948 13.02 13.5ZM18 6.25H13.311L10.531 3.47C10.39 3.329 10.2 3.25 10.001 3.25H6.00098C3.58298 3.25 2.25098 4.582 2.25098 7V17C2.25098 19.418 3.58298 20.75 6.00098 20.75H18.001C20.419 20.75 21.751 19.418 21.751 17V10C21.75 7.582 20.418 6.25 18 6.25ZM20.25 17C20.25 18.577 19.577 19.25 18 19.25H6C4.423 19.25 3.75 18.577 3.75 17V7C3.75 5.423 4.423 4.75 6 4.75H9.68896L12.469 7.53C12.61 7.671 12.8 7.75 12.999 7.75H17.999C19.576 7.75 20.249 8.423 20.249 10V17H20.25Z" fill="currentColor"/>
</svg>

<svg xmlns="http://www.w3.org/2000/svg" width="24" height="24" fill="none"><path fill="currentColor" d="M15.343 10.693a.75.75 0 0 0-1.011-.271l-.116.065a.482.482 0 0 1-.47-.001.412.412 0 0 1-.219-.356.883.883 0 0 0-.885-.881h-1.334a.884.884 0 0 0-.885.881.413.413 0 0 1-.217.356.487.487 0 0 1-.472.001.888.888 0 0 0-1.192.317l-.672 1.127a1.012 1.012 0 0 0-.091.673.882.882 0 0 0 .42.538.42.42 0 0 1 .219.357.42.42 0 0 1-.222.361.883.883 0 0 0-.418.542c-.052.194-.008.498.095.671l.67 1.125c.246.41.77.549 1.192.315a.48.48 0 0 1 .47 0 .412.412 0 0 1 .217.356c0 .486.396.881.885.881h1.336a.884.884 0 0 0 .884-.881c0-.144.083-.28.218-.356a.484.484 0 0 1 .471-.001.882.882 0 0 0 1.193-.317l.666-1.119a1.01 1.01 0 0 0 .098-.676.88.88 0 0 0-.42-.542l-.012-.006a.417.417 0 0 1-.208-.351.42.42 0 0 1 .218-.36l.116-.065a.75.75 0 0 0 .277-1.037l-.801-1.346Zm-.826 4.069-.138.23a1.99 1.99 0 0 0-1.37.213c-.416.235-.725.61-.876 1.044h-.314a1.929 1.929 0 0 0-.876-1.044 1.992 1.992 0 0 0-1.37-.214l-.137-.229c.308-.346.484-.796.483-1.269a1.908 1.908 0 0 0-.484-1.256l.138-.231c.463.094.952.022 1.371-.213.416-.235.724-.609.875-1.044h.314c.151.434.459.809.876 1.043.419.237.91.307 1.37.214l.138.23a1.907 1.907 0 0 0-.483 1.266c0 .47.177.916.483 1.26ZM13.02 13.5a1 1 0 0 1-1 1 1.005 1.005 0 0 1-1.005-1c0-.552.443-1 .995-1h.01a1 1 0 0 1 1 1ZM18 6.25h-4.689l-2.78-2.78a.749.749 0 0 0-.53-.22h-4c-2.418 0-3.75 1.332-3.75 3.75v10c0 2.418 1.332 3.75 3.75 3.75h12c2.418 0 3.75-1.332 3.75-3.75v-7C21.75 7.582 20.418 6.25 18 6.25ZM20.25 17c0 1.577-.673 2.25-2.25 2.25H6c-1.577 0-2.25-.673-2.25-2.25V7c0-1.577.673-2.25 2.25-2.25h3.689l2.78 2.78c.141.141.331.22.53.22h5c1.577 0 2.25.673 2.25 2.25v7h.001Z"/></svg>
